Adwaita++/apps/scalable/krita.svg

<svg enable-background="new" height="128" viewBox="0 0 128 128" width="128" xmlns="http://www.w3.org/2000/svg" xmlns:xlink="http://www.w3.org/1999/xlink">
  <linearGradient id="linearGradient2416" gradientUnits="userSpaceOnUse" x1="62.612" x2="64.12" y1="164.322" y2="248.312">
    <stop offset="0" stop-color="#ff10ff" stop-opacity=".988235"/>
    <stop offset="1" stop-color="#ff0bff" stop-opacity=".009524"/>
  </linearGradient>
  <linearGradient id="linearGradient2430" gradientUnits="userSpaceOnUse" x1="-246.84694" x2="-278.93494" y1="71.92395" y2="115.02795">
    <stop offset="0" stop-color="#fff755" stop-opacity="0"/>
    <stop offset="1" stop-color="#fffa3b" stop-opacity=".992157"/>
  </linearGradient>
  <linearGradient id="linearGradient2440" gradientUnits="userSpaceOnUse" x1="61.344003" x2="26.404003" y1="242.290013" y2="278.421013">
    <stop offset="0" stop-color="#2ffffe" stop-opacity="0"/>
    <stop offset="1" stop-color="#14ffff" stop-opacity=".886275"/>
  </linearGradient>
  <linearGradient id="linearGradient1492" gradientUnits="userSpaceOnUse" x1="36.015397034" x2="31.55495157192" y1="21.15332260736" y2="25.61376806944">
    <stop offset="0" stop-color="#e9b96e"/>
    <stop offset="1" stop-color="#dc9321"/>
  </linearGradient>
  <linearGradient id="linearGradient1506" gradientUnits="userSpaceOnUse" x1="418.838" x2="428.919" y1="227" y2="216.919">
    <stop offset="0" stop-color="#bcbcb4"/>
    <stop offset="1" stop-color="#eeeeec"/>
  </linearGradient>
  <radialGradient id="radialGradient1425" cx="437.1969896516" cy="420.2286427715" gradientUnits="userSpaceOnUse" r="65.859268">
    <stop offset="0" stop-color="#505050"/>
    <stop offset="1"/>
  </radialGradient>
  <linearGradient id="linearGradient3822" gradientUnits="userSpaceOnUse" x1="467.20582802737" x2="361.0750700041" y1="291.81557947432" y2="239.55892546072">
    <stop offset="0" stop-color="#5596ea"/>
    <stop offset=".545" stop-color="#5596ea" stop-opacity=".498039"/>
    <stop offset="1" stop-color="#5596ea" stop-opacity="0"/>
  </linearGradient>
  <filter id="filter3868" color-interpolation-filters="sRGB" height="1.292" width="1.204" x="-.1" y="-.15">
    <feGaussianBlur stdDeviation="5.594"/>
  </filter>
  <g transform="translate(.000062 -173)">
    <path d="m123.99993 237a59.999995 59.999995 0 0 1 -59.999985 60 59.999995 59.999995 0 0 1 -60.0000069-60 59.999995 59.999995 0 0 1 60.0000069-59.99999 59.999995 59.999995 0 0 1 59.999985 59.99999z" fill="#deddda"/>
    <rect fill="#d5d3cf" height="114" rx="56" width="112" x="8" y="179"/>
    <path d="m123.99993 235a59.999995 59.999995 0 0 1 -59.999985 59.99999 59.999995 59.999995 0 0 1 -60.0000069-59.99999 59.999995 59.999995 0 0 1 60.0000069-60 59.999995 59.999995 0 0 1 59.999985 60z" fill="#f6f5f4"/>
    <path d="m64.000045 181a54 54 0 0 0 -54 54 54 54 0 0 0 .0415 1.1709 54 54 0 0 1 53.9585-53.1709 54 54 0 0 1 53.958495 52.82813 54 54 0 0 0 .0415-.82813 54 54 0 0 0 -54.000005-54z" opacity=".1"/>
    <ellipse cx="64" cy="235" fill="url(#linearGradient2416)"/>
    <circle cx="-235" cy="64" fill="url(#linearGradient2430)" r="54" transform="rotate(-90)"/>
    <circle cx="64" cy="235" fill="url(#linearGradient2440)" r="54"/>
    <circle cx="64" cy="235" fill="url(#linearGradient2416)" r="54"/>
  </g>
  <g enable-background="new" transform="matrix(.49188856 0 0 .49188856 -137.75653 -47.148351)">
    <path d="m34.417969 16.851562a54 54 0 0 0 -3.984375 2.84961 54 54 0 0 0 -2.878906 2.527344l50.880859 50.882812c2.290627 2.38532 6.095155 2.422428 8.433594.083984 2.338487-2.338443 2.299377-6.141023-.085938-8.43164l-45.015625-45.015625c-2.200149-1.887033-4.787149-2.712897-7.349609-2.896485z" fill="url(#linearGradient1492)" transform="matrix(2.0329808 0 0 2.0329808 280.05638 95.851693)"/>
    <path d="m391.83203 163.83789a16.0016 16.0016 0 0 0 -11.14648 27.47656l56 56a16.0016 16.0016 0 1 0 22.6289-22.6289l-56-56a16.0016 16.0016 0 0 0 -11.48242-4.84766z" fill="url(#linearGradient1506)"/>
    <path d="m364.64942 207.82203c-5.3588.11103-18.09577 11.60097-19.7994 16.53037-1.84801 5.34714.43619 3.60283 1.78622 7.14588s3.26459 7.61792 7.14638 13.62286c3.88179 6.00493 10.795 15.66902 16.97233 21.6616 6.17733 5.99257 13.29563 10.26102 19.42845 14.29275s11.85693 7.57183 17.1958 10.04942c5.33886 2.47758 7.89756 3.51397 14.51572 5.13619 6.61815 1.62223 18.91471 3.98526 25.23503 3.57294 6.32033-.41232 8.70333-1.10426 12.50603-2.45661 3.80272-1.35235 7.39632-2.63216 10.27239-5.58263 2.87608-2.95046 4.01938-8.12525 4.91323-12.0596.89386-3.93434 1.44524-7.07626.66989-11.16575-.77534-4.08949-.8494-7.4143-3.34997-10.94278-2.50056-3.52847-6.63792-7.57556-11.16574-10.04942s-12.8581-4.46324-18.53559-5.35965c-5.67749-.89642-14.29248-.66961-15.40908-.22297s-9.29504 1.41019-11.16575 3.57294c-1.87071 2.16274-.72398 3.90435-.89336 5.35966-.16936 1.45531.26184 2.11506-.22346 3.34997s-1.30778 2.70639-2.90304 3.57294c-1.59527.86655-4.91311.44657-6.25302.66989-1.33992.22332-5.01423-1.40014-8.70914-3.34947-3.6949-1.94933-9.14046-5.27995-12.95246-8.9331-3.812-3.65314-8.03976-11.6124-9.60299-12.729-1.56323-1.11659-8.3745-22.77871-8.48617-23.22535-.11166-.44664 4.31292-.1218 0-2.23315-.33694-.16495-.73817-.23734-1.1923-.22793zm31.02921 24.09785a9.6027154 5.6946331 34.330862 0 0 -3.93396 1.75593 9.6027154 5.6946331 34.330862 0 0 4.71856 10.11795 9.6027154 5.6946331 34.330862 0 0 11.14142.7131 9.6027154 5.6946331 34.330862 0 0 -4.71857-10.11795 9.6027154 5.6946331 34.330862 0 0 -7.20745-2.46903z" fill="url(#linearGradient3822)" filter="url(#filter3868)"/>
    <path d="m440 400c-22.09137 0-40 17.90862-40 40s17.90863 40 40 40h40v-40c0-22.09138-17.90861-40-40-40z" fill="url(#radialGradient1425)" transform="translate(-.000256 -212)"/>
    <circle cx="436" cy="-208.355" fill="#7a8599" r="6.355" transform="scale(1 -1)"/>
  </g>
</svg>

<svg xmlns="http://www.w3.org/2000/svg" xmlns:xlink="http://www.w3.org/1999/xlink" style="enable-background:new" width="128" height="128" version="1.0" viewBox="0 0 128 128">
 <title id="title4162">
  Adwaita Icon Template
 </title>
 <defs>
  <linearGradient id="linearGradient2446">
   <stop id="stop2442" offset="0" style="stop-color:#2ffffe;stop-opacity:0"/>
   <stop id="stop2444" offset="1" style="stop-color:#14ffff;stop-opacity:0.88627452"/>
  </linearGradient>
  <linearGradient id="linearGradient2436">
   <stop style="stop-color:#fff755;stop-opacity:0" id="stop2432" offset="0"/>
   <stop style="stop-color:#fffa3b;stop-opacity:0.99215686" id="stop2434" offset="1"/>
  </linearGradient>
  <linearGradient id="linearGradient2422">
   <stop id="stop2418" offset="0" style="stop-color:#ff10ff;stop-opacity:0.98823529"/>
   <stop id="stop2420" offset="1" style="stop-color:#ff0bff;stop-opacity:0.00952381"/>
  </linearGradient>
  <linearGradient id="linearGradient950">
   <stop style="stop-color:#9a9996" id="stop946" offset="0"/>
   <stop style="stop-color:#77767b" id="stop948" offset="1"/>
  </linearGradient>
  <linearGradient id="linearGradient1001" x1="1660.857" x2="1662.99" y1="806.297" y2="812.882" gradientTransform="matrix(1.8293937,-0.81599442,0.81599442,1.8293937,-3645.9624,100.02949)" gradientUnits="userSpaceOnUse" xlink:href="#linearGradient950"/>
  <clipPath id="clipPath5154" clipPathUnits="userSpaceOnUse">
   <circle cx="128" cy="924.362" r="109.647" style="fill:url(#radialGradient5158)"/>
  </clipPath>
  <clipPath id="clipPath977" clipPathUnits="userSpaceOnUse">
   <circle cx="128" cy="924.362" r="109.647" style="fill:url(#radialGradient5158)"/>
  </clipPath>
  <clipPath id="clipPath4688" clipPathUnits="userSpaceOnUse">
   <path d="m 106.42383,889.60156 c -2.2448,-0.0524 -4.09304,1.75264 -4.09375,3.99805 v 32.64453 32.64453 c -4e-5,3.07923 3.33305,5.004 6,3.46485 l 28.26953,-16.32227 28.27148,-16.32227 c 2.66559,-1.54001 2.66559,-5.38772 0,-6.92773 l -28.27148,-16.32227 -28.26953,-16.32226 c -0.58054,-0.3353 -1.23603,-0.51932 -1.90625,-0.53516 z" style="fill:url(#radialGradient4692);stroke:#a7003f;stroke-linecap:round;stroke-linejoin:round"/>
  </clipPath>
  <clipPath id="clipPath4564" clipPathUnits="userSpaceOnUse">
   <circle style="fill:url(#radialGradient4568)" cx="128" cy="924.362" r="109.647"/>
  </clipPath>
  <clipPath id="clipPath6215" clipPathUnits="userSpaceOnUse">
   <path d="m 105.17325,806.18572 c -3.06859,0.56361 -6.11393,1.24721 -9.129005,2.04923 -3.838255,1.06506 -7.62084,2.32142 -11.333578,3.76438 -3.712189,1.44307 -7.34989,3.07087 -10.899472,4.87732 -3.549153,1.80656 -7.005749,3.78947 -10.35684,5.94129 -3.351877,2.15253 -6.593991,4.47137 -9.714191,6.94783 -3.119992,2.47544 -6.114241,5.10535 -8.971529,7.87988 -0.367219,0.38909 -0.731819,0.78065 -1.093777,1.17464 2.60205,17.85956 16.832359,40.03752 30.863064,55.74236 -4.76734,8.84435 -7.265993,18.73329 -7.272057,28.78068 0.02104,2.87431 0.246096,5.7435 0.673482,8.58593 -20.257302,-9.18513 -43.077023,-26.53494 -52.798465,-47.36396 -0.440667,1.15171 -0.863474,2.31018 -1.268271,3.47498 -1.176789,3.80495 -2.162562,7.66637 -2.953625,11.56979 -0.79154,3.90311 -1.3874065,7.84335 -1.7853678,11.80598 -0.39733,3.96334 -0.5961891,7.94407 -0.5958321,11.92728 -4.394e-4,2.81936 0.098928,5.63785 0.2979155,8.45018 0.282275,3.97319 0.763088,7.92978 1.4406374,11.85493 0.625626,3.51826 1.408798,7.00668 2.347153,10.45473 16.778133,6.68355 43.114514,5.45001 63.748015,1.14301 6.818545,11.02763 16.987182,19.58379 29.018153,24.41667 -18.071844,12.93645 -44.490188,24.02095 -67.37308,22.03245 1.384097,1.665 2.813203,3.2921 4.285735,4.8794 2.774977,2.8571 5.691103,5.5737 8.737453,8.1395 3.046107,2.5658 6.218619,4.9777 9.505651,7.2266 3.287242,2.2488 6.684891,4.3319 10.180217,6.2413 3.495379,1.9096 7.084075,3.6433 10.752641,5.1944 3.66896,1.5509 7.413193,2.9174 11.218668,4.0942 1.438565,0.3959 2.884421,0.7648 4.336807,1.1066 14.138748,-11.1844 26.206378,-34.5828 32.780368,-54.56406 12.95816,-0.38251 25.45395,-4.90132 35.65955,-12.89544 2.15922,22.12638 -1.46693,50.5581 -14.64692,69.3832 3.06859,-0.5636 6.11393,-1.2473 9.129,-2.0493 3.83826,-1.0651 7.62084,-2.3214 11.33358,-3.7644 3.71219,-1.4431 7.34989,-3.0709 10.89947,-4.8773 3.54915,-1.8066 7.00575,-3.7895 10.35684,-5.9413 3.35188,-2.1525 6.59399,-4.4714 9.71419,-6.9478 3.11999,-2.4754 6.11424,-5.1054 8.97153,-7.8799 0.36722,-0.3891 0.73182,-0.7806 1.09378,-1.1746 -2.60204,-17.85957 -16.83236,-40.03755 -30.86307,-55.74238 4.76735,-8.84435 7.266,-18.7333 7.27207,-28.78069 -0.021,-2.8743 -0.24611,-5.74349 -0.6735,-8.58592 20.25731,9.18513 43.07704,26.53494 52.79848,47.36396 0.44067,-1.15171 0.86347,-2.31018 1.26827,-3.47499 1.17679,-3.80495 2.16256,-7.66636 2.95362,-11.56978 0.79154,-3.90311 1.38741,-7.84335 1.78537,-11.80598 0.39733,-3.96334 0.59619,-7.94408 0.59583,-11.92729 4.4e-4,-2.81936 -0.0989,-5.63784 -0.29791,-8.45017 -0.28228,-3.97319 -0.76309,-7.92978 -1.44064,-11.85493 -0.62776,-3.53416 -1.41449,-7.03823 -2.35779,-10.50154 -20.56165,-7.32804 -45.89823,-4.79548 -63.74906,-1.11372 -6.81835,-11.01918 -16.98234,-19.56874 -29.00647,-24.39915 18.07184,-12.93645 44.49019,-24.02091 67.37307,-22.03241 -1.38409,-1.66502 -2.8132,-3.2921 -4.28573,-4.87944 -2.77498,-2.85712 -5.6911,-5.57368 -8.73745,-8.13949 -3.04611,-2.56581 -6.21862,-4.97769 -9.50565,-7.22659 -3.28724,-2.24885 -6.68489,-4.3319 -10.18022,-6.24135 -3.49538,-1.90963 -7.08407,-3.64325 -10.75264,-5.19438 -3.66896,-1.55092 -7.41319,-2.91736 -11.21867,-4.09421 -1.42662,-0.39262 -2.86041,-0.75869 -4.30063,-1.09804 -14.14688,11.18369 -26.2293,34.57475 -32.8107,54.55552 -12.96018,0.38127 -25.4582,4.90015 -35.665394,12.89544 -2.15922,-22.12637 1.466931,-50.55807 14.646924,-69.38315 z" style="fill:url(#radialGradient6219)"/>
  </clipPath>
  <filter style="color-interpolation-filters:sRGB" id="filter5334">
   <feGaussianBlur id="feGaussianBlur5336" stdDeviation="2.56"/>
  </filter>
  <linearGradient id="linearGradient2416" x1="62.612" x2="64.12" y1="164.322" y2="248.312" gradientUnits="userSpaceOnUse" xlink:href="#linearGradient2422"/>
  <linearGradient id="linearGradient2430" x1="52.153" x2="20.065" y1="242.924" y2="286.028" gradientTransform="translate(-298.99994,-171.00005)" gradientUnits="userSpaceOnUse" xlink:href="#linearGradient2436"/>
  <linearGradient id="linearGradient2440" x1="61.344" x2="26.404" y1="242.29" y2="278.421" gradientTransform="translate(2.779541e-6,1.2779541e-5)" gradientUnits="userSpaceOnUse" xlink:href="#linearGradient2446"/>
  <linearGradient id="linearGradient1492" x1="953.275" x2="944.207" y1="350.856" y2="359.924" gradientTransform="matrix(0.49188856,0,0,0.49188856,-432.88967,-151.42873)" gradientUnits="userSpaceOnUse" xlink:href="#linearGradient27905"/>
  <linearGradient id="linearGradient27905">
   <stop style="stop-color:#e9b96e" id="stop27901" offset="0"/>
   <stop style="stop-color:#dc9321" id="stop27903" offset="1"/>
  </linearGradient>
  <linearGradient id="linearGradient1506" x1="418.838" x2="428.919" y1="227" y2="216.919" gradientUnits="userSpaceOnUse" xlink:href="#linearGradient27913"/>
  <linearGradient id="linearGradient27913">
   <stop style="stop-color:#bcbcb4" id="stop27909" offset="0"/>
   <stop style="stop-color:#eeeeec" id="stop27911" offset="1"/>
  </linearGradient>
  <radialGradient id="radialGradient1425" cx="450.948" cy="225.395" r="40" fx="450.948" fy="225.395" gradientTransform="matrix(1.6464817,0,0,1.6464817,-305.28064,49.1199)" gradientUnits="userSpaceOnUse" xlink:href="#linearGradient27897"/>
  <linearGradient id="linearGradient27897">
   <stop style="stop-color:#505050" id="stop27893" offset="0"/>
   <stop style="stop-color:#000000" id="stop27895" offset="1"/>
  </linearGradient>
  <linearGradient id="linearGradient5021" x1="137.285" x2="44.373" y1="139.141" y2="123.15" gradientTransform="translate(0,-192)" gradientUnits="userSpaceOnUse" xlink:href="#linearGradient4622-0"/>
  <linearGradient id="linearGradient4622-0">
   <stop id="stop4624-4" offset="0" style="stop-color:#5596ea"/>
   <stop id="stop4996-2" offset=".545" style="stop-color:#5596ea;stop-opacity:0.49803922"/>
   <stop id="stop4626-7" offset="1" style="stop-color:#5596ea;stop-opacity:0"/>
  </linearGradient>
  <filter style="color-interpolation-filters:sRGB" id="filter3771">
   <feBlend id="feBlend3773" in2="BackgroundImage" mode="overlay"/>
  </filter>
  <linearGradient id="linearGradient3822" x1="1308.403" x2="459.79" y1="111.608" y2="-306.232" gradientTransform="matrix(0.12506379,0,0,0.12506379,303.57199,277.85746)" gradientUnits="userSpaceOnUse" xlink:href="#linearGradient4622-0"/>
  <filter style="color-interpolation-filters:sRGB" id="filter3868" width="1.204" height="1.292" x="-.1" y="-.15">
   <feGaussianBlur id="feGaussianBlur3870" stdDeviation="5.594"/>
  </filter>
 </defs>
 <g id="layer1" transform="translate(6.19e-5,-173)">
  <g id="layer9">
   <path d="M 123.99993,237 A 59.999995,59.999995 0 0 1 63.999945,297 59.999995,59.999995 0 0 1 3.9999381,237 59.999995,59.999995 0 0 1 63.999945,177.00001 59.999995,59.999995 0 0 1 123.99993,237 Z" style="fill:#deddda"/>
   <rect style="fill:#d5d3cf" width="112" height="114" x="8" y="179" rx="56" ry="56"/>
   <path style="fill:#f6f5f4" d="M 123.99993,235 A 59.999995,59.999995 0 0 1 63.999945,294.99999 59.999995,59.999995 0 0 1 3.9999381,235 59.999995,59.999995 0 0 1 63.999945,175 59.999995,59.999995 0 0 1 123.99993,235 Z"/>
   <path d="m 64.000045,181 a 54,54 0 0 0 -54,54 54,54 0 0 0 0.0415,1.1709 A 54,54 0 0 1 64.000045,183 54,54 0 0 1 117.95854,235.82813 54,54 0 0 0 118.00004,235 54,54 0 0 0 64.000035,181 Z" style="opacity:0.1"/>
   <ellipse id="ellipse2424" cx="64" cy="235" r="54" style="fill:url(#linearGradient2416)"/>
   <circle cx="-235" cy="64" r="54" transform="rotate(-90)" style="fill:url(#linearGradient2430)"/>
   <circle style="fill:url(#linearGradient2440)" cx="64" cy="235" r="54"/>
   <circle style="fill:url(#linearGradient2416)" cx="64" cy="235" r="54"/>
  </g>
 </g>
 <g style="enable-background:new" transform="matrix(0.49188856,0,0,0.49188856,-137.75653,-47.148351)">
  <path style="fill:url(#linearGradient1492)" d="M 34.417969 16.851562 A 54 54 0 0 0 30.433594 19.701172 A 54 54 0 0 0 27.554688 22.228516 L 78.435547 73.111328 C 80.726174 75.496648 84.530702 75.533756 86.869141 73.195312 C 89.207628 70.856869 89.168518 67.054289 86.783203 64.763672 L 41.767578 19.748047 C 39.567429 17.861014 36.980429 17.03515 34.417969 16.851562 z" transform="matrix(2.0329808,0,0,2.0329808,280.05638,95.851693)"/>
  <path style="fill:url(#linearGradient1506)" d="m 391.83203,163.83789 a 16.0016,16.0016 0 0 0 -11.14648,27.47656 l 56,56 a 16.0016,16.0016 0 1 0 22.6289,-22.6289 l -56,-56 a 16.0016,16.0016 0 0 0 -11.48242,-4.84766 z"/>
  <path style="fill:url(#linearGradient3822);filter:url(#filter3868)" d="m 364.64942,207.82203 c -5.3588,0.11103 -18.09577,11.60097 -19.7994,16.53037 -1.84801,5.34714 0.43619,3.60283 1.78622,7.14588 1.35003,3.54305 3.26459,7.61792 7.14638,13.62286 3.88179,6.00493 10.795,15.66902 16.97233,21.6616 6.17733,5.99257 13.29563,10.26102 19.42845,14.29275 6.13282,4.03173 11.85693,7.57183 17.1958,10.04942 5.33886,2.47758 7.89756,3.51397 14.51572,5.13619 6.61815,1.62223 18.91471,3.98526 25.23503,3.57294 6.32033,-0.41232 8.70333,-1.10426 12.50603,-2.45661 3.80272,-1.35235 7.39632,-2.63216 10.27239,-5.58263 2.87608,-2.95046 4.01938,-8.12525 4.91323,-12.0596 0.89386,-3.93434 1.44524,-7.07626 0.66989,-11.16575 -0.77534,-4.08949 -0.8494,-7.4143 -3.34997,-10.94278 -2.50056,-3.52847 -6.63792,-7.57556 -11.16574,-10.04942 -4.52782,-2.47386 -12.8581,-4.46324 -18.53559,-5.35965 -5.67749,-0.89642 -14.29248,-0.66961 -15.40908,-0.22297 -1.1166,0.44664 -9.29504,1.41019 -11.16575,3.57294 -1.87071,2.16274 -0.72398,3.90435 -0.89336,5.35966 -0.16936,1.45531 0.26184,2.11506 -0.22346,3.34997 -0.4853,1.23491 -1.30778,2.70639 -2.90304,3.57294 -1.59527,0.86655 -4.91311,0.44657 -6.25302,0.66989 -1.33992,0.22332 -5.01423,-1.40014 -8.70914,-3.34947 -3.6949,-1.94933 -9.14046,-5.27995 -12.95246,-8.9331 -3.812,-3.65314 -8.03976,-11.6124 -9.60299,-12.729 -1.56323,-1.11659 -8.3745,-22.77871 -8.48617,-23.22535 -0.11166,-0.44664 4.31292,-0.1218 0,-2.23315 -0.33694,-0.16495 -0.73817,-0.23734 -1.1923,-0.22793 z m 31.02921,24.09785 a 9.6027154,5.6946331 34.330862 0 0 -3.93396,1.75593 9.6027154,5.6946331 34.330862 0 0 4.71856,10.11795 9.6027154,5.6946331 34.330862 0 0 11.14142,0.7131 9.6027154,5.6946331 34.330862 0 0 -4.71857,-10.11795 9.6027154,5.6946331 34.330862 0 0 -7.20745,-2.46903 z"/>
  <path style="fill:url(#radialGradient1425)" d="m 440,400 c -22.09137,0 -40,17.90862 -40,40 0,22.09138 17.90863,40 40,40 h 40 v -40 c 0,-22.09138 -17.90861,-40 -40,-40 z" transform="translate(-2.561e-4,-212)"/>
  <circle style="fill:#7a8599" cx="436" cy="-208.355" r="6.355" transform="scale(1,-1)"/>
 </g>
</svg>
